dist/images/icons/build_white.svg

<svg width="15" height="13" viewBox="0 0 15 13" fill="none" xmlns="http://www.w3.org/2000/svg">
<path fill-rule="evenodd" clip-rule="evenodd" d="M10 7C10 6.72386 10.2239 6.5 10.5 6.5H11.5C11.7761 6.5 12 6.72386 12 7C12 7.27614 11.7761 7.5 11.5 7.5H10.5C10.2239 7.5 10 7.27614 10 7Z" fill="white"/>
<path fill-rule="evenodd" clip-rule="evenodd" d="M10 9.5C10 9.22386 10.2239 9 10.5 9H11.5C11.7761 9 12 9.22386 12 9.5C12 9.77614 11.7761 10 11.5 10H10.5C10.2239 10 10 9.77614 10 9.5Z" fill="white"/>
<path fill-rule="evenodd" clip-rule="evenodd" d="M3 9.5C3 9.22386 3.22386 9 3.5 9H5.5C5.77614 9 6 9.22386 6 9.5C6 9.77614 5.77614 10 5.5 10H3.5C3.22386 10 3 9.77614 3 9.5Z" fill="white"/>
<path fill-rule="evenodd" clip-rule="evenodd" d="M4 7C4 6.72386 4.22386 6.5 4.5 6.5H6.5C6.77614 6.5 7 6.72386 7 7C7 7.27614 6.77614 7.5 6.5 7.5H4.5C4.22386 7.5 4 7.27614 4 7Z" fill="white"/>
<path fill-rule="evenodd" clip-rule="evenodd" d="M3 3C3 2.72386 3.22386 2.5 3.5 2.5H5.5C5.77614 2.5 6 2.72386 6 3C6 3.27614 5.77614 3.5 5.5 3.5H3.5C3.22386 3.5 3 3.27614 3 3Z" fill="white"/>
<path fill-rule="evenodd" clip-rule="evenodd" d="M8 4.5C8 4.22386 8.22386 4 8.5 4H13C13.2652 4 13.5196 4.10536 13.7071 4.29289C13.8946 4.48043 14 4.73478 14 5V12C14 12.2761 13.7761 12.5 13.5 12.5C13.2239 12.5 13 12.2761 13 12L13 5L8.5 5C8.22386 5 8 4.77614 8 4.5Z" fill="white"/>
<path fill-rule="evenodd" clip-rule="evenodd" d="M1.29289 0.292893C1.48043 0.105357 1.73478 0 2 0H8C8.26522 0 8.51957 0.105356 8.70711 0.292893C8.89464 0.48043 9 0.734784 9 1V12C9 12.2761 8.77614 12.5 8.5 12.5C8.22386 12.5 8 12.2761 8 12V1H2L2 12C2 12.2761 1.77614 12.5 1.5 12.5C1.22386 12.5 1 12.2761 1 12V1C1 0.734784 1.10536 0.48043 1.29289 0.292893Z" fill="white"/>
<path fill-rule="evenodd" clip-rule="evenodd" d="M0 12C0 11.7239 0.223858 11.5 0.5 11.5H14.5C14.7761 11.5 15 11.7239 15 12C15 12.2761 14.7761 12.5 14.5 12.5H0.5C0.223858 12.5 0 12.2761 0 12Z" fill="white"/>
<path opacity="0.2" d="M8.5 12V1C8.5 0.867392 8.44732 0.740215 8.35355 0.646447C8.25979 0.552678 8.13261 0.5 8 0.5H2C1.86739 0.5 1.74021 0.552678 1.64645 0.646447C1.55268 0.740215 1.5 0.867392 1.5 1V12" fill="white"/>
</svg>

<svg width="15" height="13" fill="none" xmlns="http://www.w3.org/2000/svg"><path fill-rule="evenodd" clip-rule="evenodd" d="M10 7a.5.5 0 01.5-.5h1a.5.5 0 010 1h-1A.5.5 0 0110 7zm0 2.5a.5.5 0 01.5-.5h1a.5.5 0 010 1h-1a.5.5 0 01-.5-.5zm-7 0a.5.5 0 01.5-.5h2a.5.5 0 010 1h-2a.5.5 0 01-.5-.5zM4 7a.5.5 0 01.5-.5h2a.5.5 0 010 1h-2A.5.5 0 014 7zM3 3a.5.5 0 01.5-.5h2a.5.5 0 010 1h-2A.5.5 0 013 3z" fill="#fff"/><path fill-rule="evenodd" clip-rule="evenodd" d="M8 4.5a.5.5 0 01.5-.5H13a1 1 0 011 1v7a.5.5 0 01-1 0V5H8.5a.5.5 0 01-.5-.5z" fill="#fff"/><path fill-rule="evenodd" clip-rule="evenodd" d="M1.293.293A1 1 0 012 0h6a1 1 0 011 1v11a.5.5 0 01-1 0V1H2v11a.5.5 0 01-1 0V1a1 1 0 01.293-.707z" fill="#fff"/><path fill-rule="evenodd" clip-rule="evenodd" d="M0 12a.5.5 0 01.5-.5h14a.5.5 0 010 1H.5A.5.5 0 010 12z" fill="#fff"/><path opacity=".2" d="M8.5 12V1A.5.5 0 008 .5H2a.5.5 0 00-.5.5v11" fill="#fff"/></svg>
